icons/svg/xing-box.svg

﻿<?xml version="1.0" encoding="utf-8"?>
<!DOCTYPE svg PUBLIC "-//W3C//DTD SVG 1.1//EN" "http://www.w3.org/Graphics/SVG/1.1/DTD/svg11.dtd">
<svg xmlns="http://www.w3.org/2000/svg" xmlns:xlink="http://www.w3.org/1999/xlink" version="1.1" baseProfile="full" width="24" height="24" viewBox="0 0 24.00 24.00" enable-background="new 0 0 24.00 24.00" xml:space="preserve">
	<path fill="#000000" fill-opacity="1" stroke-width="0.2" stroke-linejoin="round" d="M 4.8,2.9978C 3.80375,2.9978 2.9975,3.80375 2.9975,4.8L 2.9975,19.1987C 2.9975,20.195 3.80375,21.0012 4.8,21.0012L 19.1988,21.0012C 20.1953,21.0012 21.0013,20.195 21.0013,19.1987L 21.0013,4.8C 21.0013,3.80375 20.1953,2.9978 19.1988,2.9978M 16.0688,5L 18.105,5C 18.2275,5 18.325,5.04375 18.3738,5.1275C 18.4275,5.215 18.4275,5.3275 18.3687,5.44L 13.9012,13.3588L 16.7475,18.56C 16.8062,18.6712 16.8062,18.7838 16.7525,18.8725C 16.6988,18.955 16.6063,18.9988 16.485,18.9988L 14.4675,18.9988C 14.155,18.9988 14.0038,18.7937 13.9063,18.6138L 11.035,13.35C 11.1763,13.1 15.5275,5.38625 15.5275,5.38625C 15.635,5.19 15.7662,5 16.0688,5 Z M 7.085,7.76375L 9.10125,7.76375C 9.41375,7.76375 9.565,7.96375 9.6675,8.145L 11.055,10.5662C 10.9712,10.7075 8.8775,14.4187 8.8775,14.4187C 8.77,14.605 8.6275,14.81 8.325,14.81L 6.30375,14.81C 6.18125,14.81 6.09375,14.7563 6.04,14.6725C 5.98625,14.585 5.98625,14.4725 6.04,14.36L 8.18375,10.5662L 6.82125,8.2025C 6.7675,8.09125 6.7525,7.97875 6.80625,7.89C 6.86,7.8075 6.9625,7.76375 7.085,7.76375 Z "/>
</svg>

<svg xmlns="http://www.w3.org/2000/svg" version="1.1" baseProfile="full" width="24" height="24" viewBox="0 0 24.00 24.00" xml:space="preserve"><path fill="#000" fill-opacity="1" stroke-width=".2" stroke-linejoin="round" d="M4.8 2.998c-.996 0-1.802.806-1.802 1.802v14.4c0 .995.806 1.8 1.802 1.8h14.4c.995 0 1.8-.805 1.8-1.8V4.8c0-.996-.805-1.802-1.8-1.802M16.07 5h2.035c.122 0 .22.044.27.128.052.087.052.2-.006.312l-4.47 7.92 2.847 5.2c.06.11.06.224.006.313-.054.082-.147.126-.268.126h-2.018c-.312 0-.463-.206-.56-.386l-2.872-5.264 4.492-7.964c.108-.196.24-.386.542-.386zM7.084 7.764H9.1c.314 0 .465.2.568.38l1.387 2.422c-.084.14-2.178 3.853-2.178 3.853-.107.185-.25.39-.552.39h-2.02c-.124 0-.21-.054-.265-.138-.054-.087-.054-.2 0-.312l2.144-3.794L6.82 8.202c-.053-.11-.067-.223-.014-.312.054-.082.157-.126.28-.126z"/></svg>
